X: 45
T:Chapel Keithack
B:William Marshall's Scottish Airs, Melodies, Strathspeys, Reels &c (1822)
C:William Marshall
L:1/8
M:3/4
O:Scotland
R:Air
Z:Clark Bernst + Richard Robinson
%%Page:6 - 1
F:http://richardrobinson.tunebook.org.uk/tune/3888
%%TBL:{"version":1,"type":"tune","id":"3888"}
K:Bb
%%staves { 1 2 }
%%autoclef 0
V:1
d4 (c>A) | B4 F2 | (GF) e2 (d/f/e/d/) | d3 c F2 | \
d4 (c>A) | B4 F2 | (GE)(DC)(B,A,) | [B,F,D,]6 :|
f4 (d/b/a/g/) | !trill!g>f f2 df | .g.f.e.d.c.B | (d3 c) ~F2 | 
f4 (d/b/a/g/) | (g>f) f3 =e/f/ | ga/b/ a2 g>=e | f4 B/4c/4d/4e/4f/4g/4a/4b/4 | 
d4 (c>A) | B4 F2 | (G>F) e2 (d/f/e/d/) | (d3 c) F2 | \
d4 (c>A) | B4 F2 | (GE)(DC)(B,A,) |{A,}B,6 |]
V:2 middle=d clef=bass
L:1/4
Bbf | ged | e/d/cB | fFf | Bbf | ged | e/g/fF | BFB, :| \
L:1/8
b[d'f'] [d'f'][d'f'] b[e'g'] | b[d'f'][d'f'][d'f'] b[d'f'] | e'd'g'f'e'=e' | f'2 f2 a2 | \
b[d'f'][d'f'][d'f'] b[e'g']  | [bd']f' [ac']f' fa | b2 c'2 c2 | f2 F2 z2 |\
b2 B2 f2 | g2 e2 d2 | ed c2 B2 | f2 F2 f2 | B2 b2 f2 | g2 e2 d2 | eg f2  F2 | B2 F2 B,2 |]

